X: 27
T:The Wise Maid
R:Reel
M:C|
L:1/8
K:Hp
~d2fd adfd | ~d2fd cdec | ~d2fd adfd | ge~e2 efge :|
a2fa dafa | gafa efge | a2fa dafa | ge~e2 efge |
a2fa dafa | Baca efge | a2fa dafa | ge~e2 efge ||
~e2ge Bege | ~e2ge fagf | ~e2ge Bege | fd~d2 fagf :|
~a2fd dfed | dafd efge | ~a2fd dfed | ge~e2 efge |
~a2fa eada | caBa efge | ~a2fa dafa | ge~e2 efge |]

